src/assets/images/icon-post-list-off.svg

<svg width="26" height="26" viewBox="0 0 26 26" fill="none" xmlns="http://www.w3.org/2000/svg">
<path d="M22.75 3.25H3.25V7.58333H22.75V3.25Z" fill="#DBDBDB" stroke="#DBDBDB" stroke-linecap="round"/>
<path d="M22.75 10.8335H3.25V15.1668H22.75V10.8335Z" fill="#DBDBDB" stroke="#DBDBDB" stroke-linecap="round"/>
<path d="M22.75 18.4165H3.25V22.7498H22.75V18.4165Z" fill="#DBDBDB" stroke="#DBDBDB" stroke-linecap="round"/>
</svg>

<svg xmlns="http://www.w3.org/2000/svg" width="26" height="26" fill="none" viewBox="0 0 26 26"><path fill="#DBDBDB" stroke="#DBDBDB" stroke-linecap="round" d="M22.75 3.25H3.25v4.333h19.5V3.25zm0 7.584H3.25v4.333h19.5v-4.333zm0 7.582H3.25v4.334h19.5v-4.334z"/></svg>
